Geotiff_Information:
   Version: 1
   Key_Revision: 1.0
   Tagged_Information:
      ModelTiepointTag (2,3):
         0                 0                 0                
         590520            5790630           0                
      ModelPixelScaleTag (1,3):
         10                10                0                
      End_Of_Tags.
   Keyed_Information:
      GTModelTypeGeoKey (Short,1): ModelTypeProjected
      GTRasterTypeGeoKey (Short,1): RasterPixelIsArea
      GTCitationGeoKey (Ascii,22): "WGS 84 / UTM zone 31N"
      GeogCitationGeoKey (Ascii,7): "WGS 84"
      GeogAngularUnitsGeoKey (Short,1): Angular_Degree
      ProjectedCSTypeGeoKey (Short,1): PCS_WGS84_UTM_zone_31N
      ProjLinearUnitsGeoKey (Short,1): Linear_Meter
      End_Of_Keys.
   End_Of_Geotiff.

PCS = 32631 (WGS 84 / UTM zone 31N)
Projection = 16031 (UTM zone 31N)
Projection Method: CT_TransverseMercator
   ProjNatOriginLatGeoKey: 0.000000 (  0d 0' 0.00"N)
   ProjNatOriginLongGeoKey: 3.000000 (  3d 0' 0.00"E)
   ProjScaleAtNatOriginGeoKey: 0.999600
   ProjFalseEastingGeoKey: 500000.000000 m
   ProjFalseNorthingGeoKey: 0.000000 m
GCS: 4326/WGS 84
Datum: 6326/World Geodetic System 1984
Ellipsoid: 7030/WGS 84 (6378137.00,6356752.31)
Prime Meridian: 8901/Greenwich (0.000000/  0d 0' 0.00"E)
Projection Linear Units: 9001/metre (1.000000m)

Corner Coordinates:
Upper Left    (  590520.000, 5790630.000)  (4.3262472,52.2586036)
Lower Left    (  590520.000, 5780620.000)  (4.3235700,52.1686314)
Upper Right   (  600530.000, 5790630.000)  (4.4728581,52.2568654)
Lower Right   (  600530.000, 5780620.000)  (4.4698852,52.1668988)
Center        (  595525.000, 5785625.000)  (4.3981401,52.2127727)
